assets/components_previews/general/dark/legend.svg

<svg xmlns="http://www.w3.org/2000/svg" width="320" height="232" fill="none" viewBox="0 0 320 232"><g filter="url(#a)"><rect width="216" height="40" x="52" y="96" fill="#0E0F10" rx="12"/><rect width="16" height="16" x="79" y="108" fill="#4329AC" rx="4"/><path fill="#5F43D0" d="M101.6 120v-8.64h4.104c1.908 0 3.096 1.068 3.096 2.676 0 1.62-1.212 2.712-3.096 2.712h-2.256V120zm4.008-7.224h-2.16v2.556h2.16c.84 0 1.344-.516 1.344-1.284s-.492-1.272-1.344-1.272m6.36 7.224-3.096-8.64h1.92l2.256 6.852 2.256-6.852h1.824l-3.096 8.64z"/><rect width="16" height="16" x="135" y="108" fill="#5F43D0" rx="4"/><path fill="#5F43D0" d="m157.288 120 3.096-8.64h2.064l3.096 8.64h-1.92l-.624-1.908h-3.252l-.624 1.908zm2.94-3.348h2.304l-1.152-3.504zm6.058 3.348v-8.64h2.88l1.884 6.516 1.872-6.516h2.892V120h-1.824v-7.044L171.962 120h-1.908l-2.016-7.008V120zm13.081 0v-7.224h-2.82v-1.416h7.488v1.416h-2.82V120z"/><rect width="16" height="16" x="201" y="108" fill="#2F1C78" rx="4"/><path fill="#5F43D0" d="M227.188 120.12c-2.46 0-3.684-1.38-3.684-3.972v-4.788h1.848v5.112c0 1.5.696 2.184 1.848 2.184s1.848-.684 1.848-2.172v-5.124h1.848v4.812c0 2.568-1.236 3.948-3.708 3.948m7.401-.12-3.096-8.64h1.92l2.256 6.852 2.256-6.852h1.824l-3.096 8.64z"/></g><defs><filter id="a" width="256" height="80" x="32" y="88" color-interpolation-filters="sRGB" filterUnits="userSpaceOnUse"><feFlood flood-opacity="0" result="BackgroundImageFix"/><feColorMatrix in="SourceAlpha" result="hardAlpha" values="0 0 0 0 0 0 0 0 0 0 0 0 0 0 0 0 0 0 127 0"/><feOffset dy="12"/><feGaussianBlur stdDeviation="10"/><feComposite in2="hardAlpha" operator="out"/><feColorMatrix values="0 0 0 0 0 0 0 0 0 0 0 0 0 0 0 0 0 0 0.03 0"/><feBlend in2="BackgroundImageFix" result="effect1_dropShadow_10196_62789"/><feColorMatrix in="SourceAlpha" result="hardAlpha" values="0 0 0 0 0 0 0 0 0 0 0 0 0 0 0 0 0 0 127 0"/><feOffset dy="2"/><feGaussianBlur stdDeviation="3"/><feComposite in2="hardAlpha" operator="out"/><feColorMatrix values="0 0 0 0 0 0 0 0 0 0 0 0 0 0 0 0 0 0 0.05 0"/><feBlend in2="effect1_dropShadow_10196_62789" result="effect2_dropShadow_10196_62789"/><feBlend in="SourceGraphic" in2="effect2_dropShadow_10196_62789" result="shape"/></filter></defs></svg>

<svg width="320" height="232" viewBox="0 0 320 232" fill="none" xmlns="http://www.w3.org/2000/svg">
<g filter="url(#filter0_dd_10196_62789)">
<rect x="52" y="96" width="216" height="40" rx="12" fill="#0E0F10"/>
<rect x="79" y="108" width="16" height="16" rx="4" fill="#4329AC"/>
<path d="M101.6 120V111.36H105.704C107.612 111.36 108.8 112.428 108.8 114.036C108.8 115.656 107.588 116.748 105.704 116.748H103.448V120H101.6ZM105.608 112.776H103.448V115.332H105.608C106.448 115.332 106.952 114.816 106.952 114.048C106.952 113.28 106.46 112.776 105.608 112.776ZM111.968 120L108.872 111.36H110.792L113.048 118.212L115.304 111.36H117.128L114.032 120H111.968Z" fill="#5F43D0"/>
<rect x="135" y="108" width="16" height="16" rx="4" fill="#5F43D0"/>
<path d="M157.288 120L160.384 111.36H162.448L165.544 120H163.624L163 118.092H159.748L159.124 120H157.288ZM160.228 116.652H162.532L161.38 113.148L160.228 116.652ZM166.286 120V111.36H169.166L171.05 117.876L172.922 111.36H175.814V120H173.99V112.956L171.962 120H170.054L168.038 112.992V120H166.286ZM179.367 120V112.776H176.547V111.36H184.035V112.776H181.215V120H179.367Z" fill="#5F43D0"/>
<rect x="201" y="108" width="16" height="16" rx="4" fill="#2F1C78"/>
<path d="M227.188 120.12C224.728 120.12 223.504 118.74 223.504 116.148V111.36H225.352V116.472C225.352 117.972 226.048 118.656 227.2 118.656C228.352 118.656 229.048 117.972 229.048 116.484V111.36H230.896V116.172C230.896 118.74 229.66 120.12 227.188 120.12ZM234.589 120L231.493 111.36H233.413L235.669 118.212L237.925 111.36H239.749L236.653 120H234.589Z" fill="#5F43D0"/>
</g>
<defs>
<filter id="filter0_dd_10196_62789" x="32" y="88" width="256" height="80" filterUnits="userSpaceOnUse" color-interpolation-filters="sRGB">
<feFlood flood-opacity="0" result="BackgroundImageFix"/>
<feColorMatrix in="SourceAlpha" type="matrix" values="0 0 0 0 0 0 0 0 0 0 0 0 0 0 0 0 0 0 127 0" result="hardAlpha"/>
<feOffset dy="12"/>
<feGaussianBlur stdDeviation="10"/>
<feComposite in2="hardAlpha" operator="out"/>
<feColorMatrix type="matrix" values="0 0 0 0 0 0 0 0 0 0 0 0 0 0 0 0 0 0 0.03 0"/>
<feBlend mode="normal" in2="BackgroundImageFix" result="effect1_dropShadow_10196_62789"/>
<feColorMatrix in="SourceAlpha" type="matrix" values="0 0 0 0 0 0 0 0 0 0 0 0 0 0 0 0 0 0 127 0" result="hardAlpha"/>
<feOffset dy="2"/>
<feGaussianBlur stdDeviation="3"/>
<feComposite in2="hardAlpha" operator="out"/>
<feColorMatrix type="matrix" values="0 0 0 0 0 0 0 0 0 0 0 0 0 0 0 0 0 0 0.05 0"/>
<feBlend mode="normal" in2="effect1_dropShadow_10196_62789" result="effect2_dropShadow_10196_62789"/>
<feBlend mode="normal" in="SourceGraphic" in2="effect2_dropShadow_10196_62789" result="shape"/>
</filter>
</defs>
</svg>
